X:460
T: Wiederbegegnung auf dem Kirchweg (172), S.379
N: T0348
O: Luxemburg
S: Singendes Volk, Esch-Alzette, 1937 posth.]
N: Heffingen, hhh Nikolaus Ewen, 29.8.1934;
N: Fels, fff Gdert, 6.4.1930
R: Tage-. Wchter-, Fenstergang-, Stndchenlieder, Liebeslied]
M: 2/4
L: 1/8
K: G
B | B2BB | BGGG | G2E2 | E2
E2 | A2A2 | dcBc | B2G2 | G2
D2 | G2D2 | G2A2 | B2A2 | c2
d2 | B2A2 | B2G2 | A2B2 | G2z

